assets/icons/image/history-filled.svg

<?xml version="1.0" encoding="UTF-8" standalone="no"?>
<svg
   viewBox="0 0 24 24"
   height="24"
   id="svg7384"
   version="1.1"
   width="24"
   sodipodi:docname="history-filled.svg"
   inkscape:version="1.2 (1:1.2.1+202207142221+cd75a1ee6d)"
   xmlns:inkscape="http://www.inkscape.org/namespaces/inkscape"
   xmlns:sodipodi="http://sodipodi.sourceforge.net/DTD/sodipodi-0.dtd"
   xmlns="http://www.w3.org/2000/svg"
   xmlns:svg="http://www.w3.org/2000/svg"
   xmlns:rdf="http://www.w3.org/1999/02/22-rdf-syntax-ns#"
   xmlns:cc="http://creativecommons.org/ns#"
   xmlns:dc="http://purl.org/dc/elements/1.1/">
  <sodipodi:namedview
     id="namedview21"
     pagecolor="#ffffff"
     bordercolor="#666666"
     borderopacity="1.0"
     inkscape:pageshadow="2"
     inkscape:pageopacity="0.0"
     inkscape:pagecheckerboard="0"
     showgrid="true"
     width="24px"
     inkscape:zoom="32"
     inkscape:cx="7.6875"
     inkscape:cy="13.71875"
     inkscape:window-width="1920"
     inkscape:window-height="1043"
     inkscape:window-x="0"
     inkscape:window-y="0"
     inkscape:window-maximized="1"
     inkscape:current-layer="svg7384"
     inkscape:showpageshadow="2"
     inkscape:deskcolor="#d1d1d1">
    <inkscape:grid
       type="xygrid"
       id="grid837"
       dotted="false" />
    <inkscape:grid
       type="xygrid"
       id="grid839"
       dotted="true"
       spacingx="0.5"
       spacingy="0.5"
       empspacing="10" />
  </sodipodi:namedview>
  <metadata
     id="metadata20854">
    <rdf:RDF>
      <cc:Work
         rdf:about="">
        <dc:format>image/svg+xml</dc:format>
        <dc:type
           rdf:resource="http://purl.org/dc/dcmitype/StillImage" />
      </cc:Work>
    </rdf:RDF>
  </metadata>
  <defs
     id="defs7386">
    <linearGradient
       id="linearGradient5606"
       inkscape:swatch="solid">
      <stop
         id="stop5608"
         offset="0"
         style="stop-color:#000000;stop-opacity:1;" />
    </linearGradient>
    <linearGradient
       id="linearGradient4526"
       inkscape:swatch="solid">
      <stop
         id="stop4528"
         offset="0"
         style="stop-color:#ffffff;stop-opacity:1;" />
    </linearGradient>
    <linearGradient
       id="linearGradient3600-4"
       inkscape:swatch="gradient">
      <stop
         id="stop3602-7"
         offset="0"
         style="stop-color:#f4f4f4;stop-opacity:1" />
      <stop
         id="stop3604-6"
         offset="1"
         style="stop-color:#dbdbdb;stop-opacity:1" />
    </linearGradient>
  </defs>
  <g
     id="layer2"
     style="display:inline"
     transform="translate(-309.9995,-38)">
    <path
       id="path4527"
       style="color:#000000;display:inline;overflow:visible;visibility:visible;fill:#808080;fill-opacity:1;fill-rule:nonzero;stroke:none;stroke-width:5.99881;marker:none;enable-background:accumulate"
       d="M 5.9941406 3 C 4.7359471 3.0145 3.815246 2.9694022 3.0625 3.3847656 C 2.686132 3.5924246 2.3892684 3.9441565 2.2246094 4.3828125 C 2.0599399 4.8214815 2.0395164 5.0624908 2 6 L 2 10 L 2 14 C 2 14.657605 2.0598993 15.178526 2.2246094 15.617188 C 2.3892784 16.055839 2.686132 16.407589 3.0625 16.615234 C 3.6878445 16.960261 4.4421155 16.986445 5.3964844 16.994141 C 5.4312621 16.995323 5.4649239 17 5.5 17 L 5.9941406 17 L 10.035156 17 A 6.5 6.5 0 0 1 10 16.5 A 6.5 6.5 0 0 1 10.521484 14 L 5 14 L 8 8.5 L 9.5 11 L 10.5 9.5 L 11.863281 11.953125 A 6.5 6.5 0 0 1 16.5 10 A 6.5 6.5 0 0 1 18 10.177734 L 18 6.5 L 18 6 C 18 5.3423935 17.940097 4.8214815 17.775391 4.3828125 C 17.610731 3.9441555 17.31387 3.5924246 16.9375 3.3847656 C 16.184755 2.9694016 15.264054 3.0145 14.005859 3 L 14.001953 3 L 12 3 L 8 3 L 5.9980469 3 L 5.9941406 3 z M 13.5 6 C 14.328429 6 15 6.6715728 15 7.5 C 15 8.3284242 14.328429 9 13.5 9 C 12.671571 9 12 8.3284242 12 7.5 C 12 6.6715728 12.671571 6 13.5 6 z "
       transform="translate(309.9995,38)" />
  </g>
  <path
     id="path1888"
     style="fill:#808080;fill-rule:evenodd;stroke:none;stroke-width:2;stroke-linecap:round;stroke-linejoin:round;stroke-dasharray:2, 4"
     d="m 16.5,11 a 5.5,5.5 0 0 0 -5.5,5.5 5.5,5.5 0 0 0 5.5,5.499999 5.5,5.5 0 0 0 5.5,-5.499999 5.5,5.5 0 0 0 -5.5,-5.5 z m -0.5,2 h 1 v 0.5 3.292969 l 1.353516,1.353514 0.353515,0.353516 -0.707031,0.707031 -0.353516,-0.353515 -1.646484,-1.646484 v -3.707031 z" />
</svg>

<svg height="24" width="24" xmlns="http://www.w3.org/2000/svg"><g style="display:inline"><path style="color:#000;display:inline;overflow:visible;visibility:visible;fill:gray;fill-opacity:1;fill-rule:nonzero;stroke:none;stroke-width:5.99881;marker:none;enable-background:accumulate" d="M5.994 3c-1.258.014-2.179-.03-2.931.385a1.88 1.88 0 0 0-.838.998C2.06 4.82 2.04 5.063 2 6v8c0 .658.06 1.179.225 1.617.164.439.461.79.837.998.626.345 1.38.371 2.334.38.035 0 .069.005.104.005h4.535a6.5 6.5 0 0 1-.035-.5 6.5 6.5 0 0 1 .521-2.5H5l3-5.5L9.5 11l1-1.5 1.363 2.453A6.5 6.5 0 0 1 16.5 10a6.5 6.5 0 0 1 1.5.178V6c0-.658-.06-1.179-.225-1.617a1.88 1.88 0 0 0-.837-.998c-.753-.416-1.674-.37-2.932-.385H5.994zM13.5 6a1.5 1.5 0 1 1 0 3 1.5 1.5 0 0 1 0-3z"/></g><path style="fill:gray;stroke:none;stroke-width:2;stroke-linecap:round;stroke-linejoin:round;stroke-dasharray:2,4" d="M16.5 11a5.5 5.5 0 0 0-5.5 5.5 5.5 5.5 0 0 0 5.5 5.5 5.5 5.5 0 0 0 5.5-5.5 5.5 5.5 0 0 0-5.5-5.5zm-.5 2h1v3.793l1.354 1.353.353.354-.707.707-.354-.353L16 17.207V13.5z"/></svg>
